Newaita-dark/apps/64/korganizer.svg

<?xml version="1.0" encoding="UTF-8"?>
<svg xmlns="http://www.w3.org/2000/svg" xmlns:xlink="http://www.w3.org/1999/xlink" width="64pt" height="64pt" viewBox="0 0 64 64" version="1.1">
<defs>
<linearGradient id="linear0" gradientUnits="userSpaceOnUse" x1="254" y1="233.5" x2="254" y2="254.666672" gradientTransform="matrix(0.125012,0,0,0.125012,-0.00000763012,26.87757)">
<stop offset="0" style="stop-color:rgb(0%,0%,0%);stop-opacity:0.27451;"/>
<stop offset="1" style="stop-color:rgb(0%,0%,0%);stop-opacity:0;"/>
</linearGradient>
<radialGradient id="radial0" gradientUnits="userSpaceOnUse" cx="450.908936" cy="189.579361" fx="450.908936" fy="189.579361" r="21.166656" gradientTransform="matrix(0.000000348341,-0.156265,-0.281277,-0.000000203077,106.24586,127.190665)">
<stop offset="0" style="stop-color:rgb(0%,0%,0%);stop-opacity:0.313725;"/>
<stop offset="0.222222" style="stop-color:rgb(0%,0%,0%);stop-opacity:0.27451;"/>
<stop offset="1" style="stop-color:rgb(0%,0%,0%);stop-opacity:0;"/>
</radialGradient>
<radialGradient id="radial1" gradientUnits="userSpaceOnUse" cx="450.908936" cy="189.579361" fx="450.908936" fy="189.579361" r="21.166656" gradientTransform="matrix(-0.000000348341,0.156265,0.281277,0.000000203077,-42.409041,-15.054958)">
<stop offset="0" style="stop-color:rgb(0%,0%,0%);stop-opacity:0.313725;"/>
<stop offset="0.222222" style="stop-color:rgb(0%,0%,0%);stop-opacity:0.27451;"/>
<stop offset="1" style="stop-color:rgb(0%,0%,0%);stop-opacity:0;"/>
</radialGradient>
<radialGradient id="radial2" gradientUnits="userSpaceOnUse" cx="450.908936" cy="189.579361" fx="450.908936" fy="189.579361" r="21.166656" gradientTransform="matrix(-0.000000348341,-0.156265,0.281277,-0.000000203077,-42.409041,127.190665)">
<stop offset="0" style="stop-color:rgb(0%,0%,0%);stop-opacity:0.313725;"/>
<stop offset="0.222222" style="stop-color:rgb(0%,0%,0%);stop-opacity:0.27451;"/>
<stop offset="1" style="stop-color:rgb(0%,0%,0%);stop-opacity:0;"/>
</radialGradient>
<radialGradient id="radial3" gradientUnits="userSpaceOnUse" cx="450.908936" cy="189.579361" fx="450.908936" fy="189.579361" r="21.166656" gradientTransform="matrix(0.000000348341,0.156265,-0.281277,0.000000203077,106.245857,-15.054959)">
<stop offset="0" style="stop-color:rgb(0%,0%,0%);stop-opacity:0.313725;"/>
<stop offset="0.222222" style="stop-color:rgb(0%,0%,0%);stop-opacity:0.27451;"/>
<stop offset="1" style="stop-color:rgb(0%,0%,0%);stop-opacity:0;"/>
</radialGradient>
<linearGradient id="linear1" gradientUnits="userSpaceOnUse" x1="254" y1="-168.666656" x2="254" y2="233.5" gradientTransform="matrix(0.125012,0,0,0.125012,0,26.877566)">
<stop offset="0" style="stop-color:rgb(89.803922%,45.098039%,45.098039%);stop-opacity:1;"/>
<stop offset="1" style="stop-color:rgb(93.72549%,32.54902%,31.372549%);stop-opacity:1;"/>
</linearGradient>
<linearGradient id="linear2" gradientUnits="userSpaceOnUse" x1="296.333344" y1="-52.25" x2="296.333344" y2="-94.583336" gradientTransform="matrix(1,0,0,1,0,-8.916562)">
<stop offset="0" style="stop-color:rgb(87.843137%,87.843137%,87.843137%);stop-opacity:1;"/>
<stop offset="1" style="stop-color:rgb(93.333333%,93.333333%,93.333333%);stop-opacity:1;"/>
</linearGradient>
<linearGradient id="linear3" gradientUnits="userSpaceOnUse" x1="127" y1="-62.833332" x2="127" y2="-105.166656" gradientTransform="matrix(1,0,0,1,1.539017,3.715165)">
<stop offset="0" style="stop-color:rgb(87.843137%,87.843137%,87.843137%);stop-opacity:1;"/>
<stop offset="1" style="stop-color:rgb(93.333333%,93.333333%,93.333333%);stop-opacity:1;"/>
</linearGradient>
<linearGradient id="linear4" gradientUnits="userSpaceOnUse" x1="296.333344" y1="-52.25" x2="296.333344" y2="-94.583336" >
<stop offset="0" style="stop-color:rgb(87.843137%,87.843137%,87.843137%);stop-opacity:1;"/>
<stop offset="1" style="stop-color:rgb(93.333333%,93.333333%,93.333333%);stop-opacity:1;"/>
</linearGradient>
<linearGradient id="linear5" gradientUnits="userSpaceOnUse" x1="127" y1="-52.25" x2="127" y2="-94.583336" >
<stop offset="0" style="stop-color:rgb(87.843137%,87.843137%,87.843137%);stop-opacity:1;"/>
<stop offset="1" style="stop-color:rgb(93.333333%,93.333333%,93.333333%);stop-opacity:1;"/>
</linearGradient>
<linearGradient id="linear6" gradientUnits="userSpaceOnUse" x1="296.333344" y1="-52.25" x2="296.333344" y2="-94.583336" >
<stop offset="0" style="stop-color:rgb(87.843137%,87.843137%,87.843137%);stop-opacity:1;"/>
<stop offset="1" style="stop-color:rgb(93.333333%,93.333333%,93.333333%);stop-opacity:1;"/>
</linearGradient>
<linearGradient id="linear7" gradientUnits="userSpaceOnUse" x1="127" y1="-52.25" x2="127" y2="-94.583336" >
<stop offset="0" style="stop-color:rgb(87.843137%,87.843137%,87.843137%);stop-opacity:1;"/>
<stop offset="1" style="stop-color:rgb(93.333333%,93.333333%,93.333333%);stop-opacity:1;"/>
</linearGradient>
<linearGradient id="linear8" gradientUnits="userSpaceOnUse" x1="296.333344" y1="-52.25" x2="296.333344" y2="-94.583336" >
<stop offset="0" style="stop-color:rgb(87.843137%,87.843137%,87.843137%);stop-opacity:1;"/>
<stop offset="1" style="stop-color:rgb(93.333333%,93.333333%,93.333333%);stop-opacity:1;"/>
</linearGradient>
<linearGradient id="linear9" gradientUnits="userSpaceOnUse" x1="127" y1="-52.25" x2="127" y2="-94.583336" >
<stop offset="0" style="stop-color:rgb(87.843137%,87.843137%,87.843137%);stop-opacity:1;"/>
<stop offset="1" style="stop-color:rgb(93.333333%,93.333333%,93.333333%);stop-opacity:1;"/>
</linearGradient>
</defs>
<g id="surface1">
<path style=" stroke:none;fill-rule:nonzero;fill:url(#linear0);" d="M 10.253906 56.066406 L 53.582031 56.066406 L 53.582031 58.714844 L 10.253906 58.714844 Z M 10.253906 56.066406 "/>
<path style=" stroke:none;fill-rule:nonzero;fill:url(#radial0);" d="M 53.582031 56.066406 L 58.875 56.066406 L 58.875 53.421875 L 53.582031 53.421875 Z M 53.582031 56.066406 "/>
<path style=" stroke:none;fill-rule:nonzero;fill:url(#radial1);" d="M 10.253906 56.066406 L 4.960938 56.066406 L 4.960938 58.714844 L 10.253906 58.714844 Z M 10.253906 56.066406 "/>
<path style=" stroke:none;fill-rule:nonzero;fill:url(#radial2);" d="M 10.253906 56.066406 L 4.960938 56.066406 L 4.960938 53.421875 L 10.253906 53.421875 Z M 10.253906 56.066406 "/>
<path style=" stroke:none;fill-rule:nonzero;fill:url(#radial3);" d="M 53.582031 56.066406 L 58.875 56.066406 L 58.875 58.714844 L 53.582031 58.714844 Z M 53.582031 56.066406 "/>
<path style=" stroke:none;fill-rule:nonzero;fill:url(#linear1);" d="M 7.277344 5.792969 L 56.230469 5.792969 C 57.324219 5.792969 58.214844 6.679688 58.214844 7.777344 L 58.214844 54.082031 C 58.214844 55.179688 57.324219 56.066406 56.230469 56.066406 L 7.277344 56.066406 C 6.179688 56.066406 5.292969 55.179688 5.292969 54.082031 L 5.292969 7.777344 C 5.292969 6.679688 6.179688 5.792969 7.277344 5.792969 Z M 7.277344 5.792969 "/>
<path style=" stroke:none;fill-rule:nonzero;fill:rgb(0%,0%,0%);fill-opacity:0.196078;" d="M 7.9375 56.066406 C 6.472656 56.066406 5.292969 54.886719 5.292969 53.421875 L 5.292969 53.089844 C 5.292969 54.558594 6.472656 55.738281 7.9375 55.738281 L 55.566406 55.738281 C 57.035156 55.738281 58.214844 54.558594 58.214844 53.089844 L 58.214844 53.421875 C 58.214844 54.886719 57.035156 56.066406 55.566406 56.066406 Z M 7.9375 56.066406 "/>
<path style=" stroke:none;fill-rule:nonzero;fill:rgb(90.196079%,90.196079%,90.196079%);fill-opacity:0.588235;" d="M 7.9375 5.792969 C 6.472656 5.792969 5.292969 6.972656 5.292969 8.4375 L 5.292969 8.769531 C 5.292969 7.304688 6.472656 6.121094 7.9375 6.121094 L 55.566406 6.121094 C 57.035156 6.121094 58.214844 7.304688 58.214844 8.769531 L 58.214844 8.4375 C 58.214844 6.972656 57.035156 5.792969 55.566406 5.792969 Z M 7.9375 5.792969 "/>
<path style=" stroke:none;fill-rule:nonzero;fill:rgb(12.941177%,12.941177%,12.941177%);fill-opacity:1;" d="M 7.277344 5.605469 C 6.078125 5.605469 5.105469 6.578125 5.105469 7.777344 L 5.105469 54.082031 C 5.105469 55.285156 6.078125 56.253906 7.277344 56.253906 L 56.230469 56.253906 C 57.429688 56.253906 58.402344 55.285156 58.402344 54.082031 L 58.402344 7.777344 C 58.402344 6.578125 57.429688 5.605469 56.230469 5.605469 Z M 7.277344 5.980469 L 56.230469 5.980469 C 57.226562 5.980469 58.027344 6.777344 58.027344 7.777344 L 58.027344 54.082031 C 58.027344 55.082031 57.226562 55.878906 56.230469 55.878906 L 7.277344 55.878906 C 6.277344 55.878906 5.480469 55.082031 5.480469 54.082031 L 5.480469 7.777344 C 5.480469 6.777344 6.277344 5.980469 7.277344 5.980469 Z M 7.277344 5.980469 "/>
<path style="fill-rule:nonzero;fill:url(#linear2);stroke-width:3;stroke-linecap:round;stroke-linejoin:round;stroke:rgb(12.941177%,12.941177%,12.941177%);stroke-opacity:1;stroke-miterlimit:4;" d="M 190.513057 -103.510647 L 402.180344 -103.510647 C 408.023536 -103.510647 412.741835 -98.7611 412.741835 -92.917908 L 412.741835 -73.41977 C 412.741835 -67.576578 408.023536 -62.827032 402.180344 -62.827032 L 190.513057 -62.827032 C 184.669865 -62.827032 179.920318 -67.576578 179.920318 -73.41977 L 179.920318 -92.917908 C 179.920318 -98.7611 184.669865 -103.510647 190.513057 -103.510647 Z M 190.513057 -103.510647 " transform="matrix(0.125012,0,0,0.125012,0,26.877566)"/>
<path style="fill-rule:nonzero;fill:url(#linear3);stroke-width:3;stroke-linecap:butt;stroke-linejoin:round;stroke:rgb(12.941177%,12.941177%,12.941177%);stroke-opacity:1;stroke-miterlimit:4;" d="M 98.33436 -100.292204 C 94.334741 -96.292586 94.45973 -89.730713 98.615583 -85.574859 L 121.332163 -62.858279 C 123.269478 -60.920964 125.831734 -59.952306 128.425236 -59.952306 C 128.456483 -59.952306 128.48773 -59.952306 128.518977 -59.952306 C 128.581471 -59.952306 128.612718 -59.952306 128.643965 -59.952306 C 131.237467 -59.952306 133.799723 -60.920964 135.768285 -62.858279 L 136.018261 -63.139502 L 136.299484 -63.389478 L 165.890408 -93.011649 C 170.046261 -97.167502 170.171249 -103.698129 166.171631 -107.697747 L 165.640432 -108.228946 C 161.640814 -112.228564 155.078941 -112.134823 150.923088 -107.97897 L 128.550224 -85.574859 L 113.582903 -100.54218 C 109.42705 -104.698033 102.865177 -104.791774 98.865559 -100.792156 Z M 98.33436 -100.292204 " transform="matrix(0.125012,0,0,0.125012,0,26.877566)"/>
<path style="fill-rule:nonzero;fill:url(#linear4);stroke-width:3;stroke-linecap:round;stroke-linejoin:round;stroke:rgb(12.941177%,12.941177%,12.941177%);stroke-opacity:1;stroke-miterlimit:4;" d="M 190.513057 -94.580067 L 402.180344 -94.580067 C 408.023536 -94.580067 412.741835 -89.830521 412.741835 -83.987329 L 412.741835 -64.489191 C 412.741835 -58.645999 408.023536 -53.927699 402.180344 -53.927699 L 190.513057 -53.927699 C 184.669865 -53.927699 179.920318 -58.645999 179.920318 -64.489191 L 179.920318 -83.987329 C 179.920318 -89.830521 184.669865 -94.580067 190.513057 -94.580067 Z M 190.513057 -94.580067 " transform="matrix(0.125012,0,0,0.125012,0,34.815825)"/>
<path style="fill-rule:nonzero;fill:url(#linear5);stroke-width:3;stroke-linecap:butt;stroke-linejoin:round;stroke:rgb(12.941177%,12.941177%,12.941177%);stroke-opacity:1;stroke-miterlimit:4;" d="M 126.987873 -94.580067 C 138.705504 -94.580067 148.17335 -85.112221 148.17335 -73.425837 C 148.17335 -61.739453 138.705504 -52.240361 126.987873 -52.240361 C 115.301489 -52.240361 105.833643 -61.739453 105.833643 -73.425837 C 105.833643 -85.112221 115.301489 -94.580067 126.987873 -94.580067 Z M 126.987873 -94.580067 " transform="matrix(0.125012,0,0,0.125012,0,34.815825)"/>
<path style="fill-rule:nonzero;fill:url(#linear6);stroke-width:3;stroke-linecap:round;stroke-linejoin:round;stroke:rgb(12.941177%,12.941177%,12.941177%);stroke-opacity:1;stroke-miterlimit:4;" d="M 190.513057 -94.576732 L 402.180344 -94.576732 C 408.023536 -94.576732 412.741835 -89.858432 412.741835 -84.01524 L 412.741835 -64.485855 C 412.741835 -58.642663 408.023536 -53.924364 402.180344 -53.924364 L 190.513057 -53.924364 C 184.669865 -53.924364 179.920318 -58.642663 179.920318 -64.485855 L 179.920318 -84.01524 C 179.920318 -89.858432 184.669865 -94.576732 190.513057 -94.576732 Z M 190.513057 -94.576732 " transform="matrix(0.125012,0,0,0.125012,0,44.077127)"/>
<path style="fill-rule:nonzero;fill:url(#linear7);stroke-width:3;stroke-linecap:butt;stroke-linejoin:round;stroke:rgb(12.941177%,12.941177%,12.941177%);stroke-opacity:1;stroke-miterlimit:4;" d="M 126.987873 -94.576732 C 138.705504 -94.576732 148.17335 -85.108886 148.17335 -73.422502 C 148.17335 -61.736118 138.705504 -52.237025 126.987873 -52.237025 C 115.301489 -52.237025 105.833643 -61.736118 105.833643 -73.422502 C 105.833643 -85.108886 115.301489 -94.576732 126.987873 -94.576732 Z M 126.987873 -94.576732 " transform="matrix(0.125012,0,0,0.125012,0,44.077127)"/>
<path style="fill-rule:nonzero;fill:url(#linear8);stroke-width:3;stroke-linecap:round;stroke-linejoin:round;stroke:rgb(12.941177%,12.941177%,12.941177%);stroke-opacity:1;stroke-miterlimit:4;" d="M 190.513057 -94.573385 L 402.180344 -94.573385 C 408.023536 -94.573385 412.741835 -89.855086 412.741835 -84.011894 L 412.741835 -64.513756 C 412.741835 -58.670564 408.023536 -53.921017 402.180344 -53.921017 L 190.513057 -53.921017 C 184.669865 -53.921017 179.920318 -58.670564 179.920318 -64.513756 L 179.920318 -84.011894 C 179.920318 -89.855086 184.669865 -94.573385 190.513057 -94.573385 Z M 190.513057 -94.573385 " transform="matrix(0.125012,0,0,0.125012,0,53.338427)"/>
<path style="fill-rule:nonzero;fill:url(#linear9);stroke-width:3;stroke-linecap:butt;stroke-linejoin:round;stroke:rgb(12.941177%,12.941177%,12.941177%);stroke-opacity:1;stroke-miterlimit:4;" d="M 126.987873 -94.573385 C 138.705504 -94.573385 148.17335 -85.105539 148.17335 -73.419155 C 148.17335 -61.732771 138.705504 -52.264925 126.987873 -52.264925 C 115.301489 -52.264925 105.833643 -61.732771 105.833643 -73.419155 C 105.833643 -85.105539 115.301489 -94.573385 126.987873 -94.573385 Z M 126.987873 -94.573385 " transform="matrix(0.125012,0,0,0.125012,0,53.338427)"/>
</g>
</svg>

<svg xmlns="http://www.w3.org/2000/svg" width="64pt" height="64pt" viewBox="0 0 64 64"><defs><linearGradient id="a" gradientUnits="userSpaceOnUse" x1="254" y1="233.5" x2="254" y2="254.667" gradientTransform="translate(0 26.878) scale(.12501)"><stop offset="0" stop-opacity=".275"/><stop offset="1" stop-opacity="0"/></linearGradient><radialGradient id="b" gradientUnits="userSpaceOnUse" cx="450.909" cy="189.579" fx="450.909" fy="189.579" r="21.167" gradientTransform="matrix(0 -.15626 -.28128 0 106.246 127.19)"><stop offset="0" stop-opacity=".314"/><stop offset=".222" stop-opacity=".275"/><stop offset="1" stop-opacity="0"/></radialGradient><radialGradient id="c" gradientUnits="userSpaceOnUse" cx="450.909" cy="189.579" fx="450.909" fy="189.579" r="21.167" gradientTransform="matrix(0 .15626 .28128 0 -42.409 -15.055)"><stop offset="0" stop-opacity=".314"/><stop offset=".222" stop-opacity=".275"/><stop offset="1" stop-opacity="0"/></radialGradient><radialGradient id="d" gradientUnits="userSpaceOnUse" cx="450.909" cy="189.579" fx="450.909" fy="189.579" r="21.167" gradientTransform="matrix(0 -.15626 .28128 0 -42.409 127.19)"><stop offset="0" stop-opacity=".314"/><stop offset=".222" stop-opacity=".275"/><stop offset="1" stop-opacity="0"/></radialGradient><radialGradient id="e" gradientUnits="userSpaceOnUse" cx="450.909" cy="189.579" fx="450.909" fy="189.579" r="21.167" gradientTransform="matrix(0 .15626 -.28128 0 106.246 -15.055)"><stop offset="0" stop-opacity=".314"/><stop offset=".222" stop-opacity=".275"/><stop offset="1" stop-opacity="0"/></radialGradient><linearGradient id="f" gradientUnits="userSpaceOnUse" x1="254" y1="-168.667" x2="254" y2="233.5" gradientTransform="translate(0 26.878) scale(.12501)"><stop offset="0" stop-color="#e57373"/><stop offset="1" stop-color="#ef5350"/></linearGradient><linearGradient id="g" gradientUnits="userSpaceOnUse" x1="296.333" y1="-52.25" x2="296.333" y2="-94.583" gradientTransform="translate(0 -8.917)"><stop offset="0" stop-color="#e0e0e0"/><stop offset="1" stop-color="#eee"/></linearGradient><linearGradient id="h" gradientUnits="userSpaceOnUse" x1="127" y1="-62.833" x2="127" y2="-105.167" gradientTransform="translate(1.539 3.715)"><stop offset="0" stop-color="#e0e0e0"/><stop offset="1" stop-color="#eee"/></linearGradient><linearGradient id="i" gradientUnits="userSpaceOnUse" x1="296.333" y1="-52.25" x2="296.333" y2="-94.583"><stop offset="0" stop-color="#e0e0e0"/><stop offset="1" stop-color="#eee"/></linearGradient><linearGradient id="j" gradientUnits="userSpaceOnUse" x1="127" y1="-52.25" x2="127" y2="-94.583"><stop offset="0" stop-color="#e0e0e0"/><stop offset="1" stop-color="#eee"/></linearGradient><linearGradient id="k" gradientUnits="userSpaceOnUse" x1="296.333" y1="-52.25" x2="296.333" y2="-94.583"><stop offset="0" stop-color="#e0e0e0"/><stop offset="1" stop-color="#eee"/></linearGradient><linearGradient id="l" gradientUnits="userSpaceOnUse" x1="127" y1="-52.25" x2="127" y2="-94.583"><stop offset="0" stop-color="#e0e0e0"/><stop offset="1" stop-color="#eee"/></linearGradient><linearGradient id="m" gradientUnits="userSpaceOnUse" x1="296.333" y1="-52.25" x2="296.333" y2="-94.583"><stop offset="0" stop-color="#e0e0e0"/><stop offset="1" stop-color="#eee"/></linearGradient><linearGradient id="n" gradientUnits="userSpaceOnUse" x1="127" y1="-52.25" x2="127" y2="-94.583"><stop offset="0" stop-color="#e0e0e0"/><stop offset="1" stop-color="#eee"/></linearGradient></defs><path d="M10.254 56.066h43.328v2.649H10.254zm0 0" fill="url(#a)"/><path d="M53.582 56.066h5.293v-2.644h-5.293zm0 0" fill="url(#b)"/><path d="M10.254 56.066H4.96v2.649h5.293zm0 0" fill="url(#c)"/><path d="M10.254 56.066H4.96v-2.644h5.293zm0 0" fill="url(#d)"/><path d="M53.582 56.066h5.293v2.649h-5.293zm0 0" fill="url(#e)"/><path d="M7.277 5.793H56.23c1.094 0 1.985.887 1.985 1.984v46.305c0 1.098-.89 1.984-1.985 1.984H7.277a1.982 1.982 0 0 1-1.984-1.984V7.777c0-1.097.887-1.984 1.984-1.984zm0 0" fill="url(#f)"/><path d="M7.938 56.066a2.639 2.639 0 0 1-2.645-2.644v-.332a2.64 2.64 0 0 0 2.644 2.648h47.63a2.64 2.64 0 0 0 2.648-2.648v.332a2.64 2.64 0 0 1-2.649 2.644zm0 0" fill-opacity=".196"/><path d="M7.938 5.793a2.639 2.639 0 0 0-2.645 2.644v.333A2.642 2.642 0 0 1 7.937 6.12h47.63a2.643 2.643 0 0 1 2.648 2.649v-.332a2.64 2.64 0 0 0-2.649-2.645zm0 0" fill="#e6e6e6" fill-opacity=".588"/><path d="M7.277 5.605c-1.199 0-2.172.973-2.172 2.172v46.305a2.17 2.17 0 0 0 2.172 2.172H56.23a2.17 2.17 0 0 0 2.172-2.172V7.777c0-1.199-.972-2.172-2.172-2.172zm0 .375H56.23a1.79 1.79 0 0 1 1.797 1.797v46.305c0 1-.8 1.797-1.797 1.797H7.277c-1 0-1.797-.797-1.797-1.797V7.777c0-1 .797-1.797 1.797-1.797zm0 0" fill="#212121"/><path d="M190.513-103.51H402.18c5.844 0 10.562 4.749 10.562 10.592v19.498c0 5.843-4.718 10.593-10.562 10.593H190.513c-5.843 0-10.593-4.75-10.593-10.593v-19.498c0-5.843 4.75-10.593 10.593-10.593zm0 0" transform="translate(0 26.878) scale(.12501)" fill="url(#g)" stroke-width="3" stroke-linecap="round" stroke-linejoin="round" stroke="#212121"/><path d="M98.334-100.292c-4 4-3.874 10.561.282 14.717l22.716 22.717c1.937 1.937 4.5 2.906 7.093 2.906h.219a10.1 10.1 0 0 0 7.124-2.906l.25-.282.281-.25 29.591-29.622c4.156-4.156 4.281-10.686.282-14.686l-.532-.53c-4-4-10.561-3.907-14.717.249L128.55-85.575l-14.967-14.967c-4.156-4.156-10.718-4.25-14.717-.25zm0 0" transform="translate(0 26.878) scale(.12501)" fill="url(#h)" stroke-width="3" stroke-linejoin="round" stroke="#212121"/><path d="M190.513-94.58H402.18c5.844 0 10.562 4.75 10.562 10.593v19.498a10.548 10.548 0 0 1-10.562 10.561H190.513c-5.843 0-10.593-4.718-10.593-10.561v-19.498c0-5.844 4.75-10.593 10.593-10.593zm0 0" transform="translate(0 34.816) scale(.12501)" fill="url(#i)" stroke-width="3" stroke-linecap="round" stroke-linejoin="round" stroke="#212121"/><path d="M126.988-94.58c11.718 0 21.185 9.468 21.185 21.154 0 11.687-9.467 21.186-21.185 21.186-11.687 0-21.154-9.5-21.154-21.186S115.3-94.58 126.988-94.58zm0 0" transform="translate(0 34.816) scale(.12501)" fill="url(#j)" stroke-width="3" stroke-linejoin="round" stroke="#212121"/><path d="M190.513-94.577H402.18a10.548 10.548 0 0 1 10.562 10.562v19.53a10.548 10.548 0 0 1-10.562 10.56H190.513c-5.843 0-10.593-4.718-10.593-10.56v-19.53c0-5.843 4.75-10.562 10.593-10.562zm0 0" transform="translate(0 44.077) scale(.12501)" fill="url(#k)" stroke-width="3" stroke-linecap="round" stroke-linejoin="round" stroke="#212121"/><path d="M126.988-94.577c11.718 0 21.185 9.468 21.185 21.154 0 11.687-9.467 21.186-21.185 21.186-11.687 0-21.154-9.5-21.154-21.186s9.467-21.154 21.154-21.154zm0 0" transform="translate(0 44.077) scale(.12501)" fill="url(#l)" stroke-width="3" stroke-linejoin="round" stroke="#212121"/><path d="M190.513-94.573H402.18a10.548 10.548 0 0 1 10.562 10.561v19.498c0 5.843-4.718 10.593-10.562 10.593H190.513c-5.843 0-10.593-4.75-10.593-10.593v-19.498c0-5.843 4.75-10.561 10.593-10.561zm0 0" transform="translate(0 53.338) scale(.12501)" fill="url(#m)" stroke-width="3" stroke-linecap="round" stroke-linejoin="round" stroke="#212121"/><path d="M126.988-94.573c11.718 0 21.185 9.467 21.185 21.154 0 11.686-9.467 21.154-21.185 21.154-11.687 0-21.154-9.468-21.154-21.154 0-11.687 9.467-21.154 21.154-21.154zm0 0" transform="translate(0 53.338) scale(.12501)" fill="url(#n)" stroke-width="3" stroke-linejoin="round" stroke="#212121"/></svg>
